X:1
T:O sing joyfully - Batten
T:James Gibb editions
T:#
%%score [ 1 2 3 4 ]
L:1/8
Q:1/4=96
M:3/4
K:Ab
V:1 treble nm="Soprano" snm="S"
V:2 treble nm="Alto" snm="A"
V:3 treble-8 nm="Tenor" snm="T"
V:4 bass nm="Bass" snm="B"
V:1
!f!"^Psalm  81:1-4""^O sing joyfully""^Adrian Batten\n(c. 1590-1637)" A4 A2 | A3 A A2 || %2
w: O sing|joy- ful- ly,|
[M:4/4] A2 c2 | B3 B B2 BB |[M:4/4] A2 A2 G4 | z4 Bc d>d | c2 B3 A A>A |[M:4/4] GE e3 (d c2) | %8
w: O sing|joy- ful- ly un- to|God our strength~:|make a cheer- ful|noise, make a cheer- ful|noise un- to the *|
 B2 A3 (G/F/ G2) ||[M:3/4] A4 z2 |!mf! A4 A2 |[M:3/4] A4 A2 | c3 c c2 ||[M:4/4] B2 B2 z2 B2 | %14
w: God of Ja\- * *|cob.|Take the|song, bring|hi- ther the|tab- ret: the|
 cd e2 e3 =d |[M:4/4] e4!ff!"^slower"[Q:1/4=48] (A3 B) | c4 z2"^a tempo"[Q:1/4=96] c2 | %17
w: mer- ry harp with the|lute. Blow *|up, blow|
 f3 f e2 e2 | de c2 B2!mf! B2 | d2 c2 BA (A2- | A2 G2) A4 | z2 cc d2 B2 |[M:4/4] c2 c2 (B4 | %23
w: up the trum- pet|in the new moon: ev'n|in the time ap- point\-|* * ed,|and up- on our|so- lemn feast\-|
 A4) G4 | z2 dd e2 c2 | d2 B2 c2 f2- | feee (e2 =d2) | e4 z2 A2 | G2 A4 G2 | A4 z2!f! A2 | %30
w: * day,|and up- on our|so- lemn feast- day,|* our so- lemn feast\- *|day, our|so- lemn feast-|day. For|
 A2 A2 A3 A | B4 B2 c2 | c2 =d2 e4 | z8 | z4 z2!mf! ee | d2 cc B2 d2 | (c3 d) e2 A2 | (G2 A2) B4 | %38
w: this was made a|sta- tute for|Is- ra- el:||and a|law of the God of|Ja\- * cob, of|Ja\- * cob,|
 z8 | z2 !courtesy!_dd c2 BB | A2 c2 (B3 A) | A4 z2!f! AA | %42
w: |and a law of the|God of Ja\- *|cob, and a|
"^rit."[Q:1/4=95] A2[Q:1/4=93] G[Q:1/4=92]G[Q:1/4=91] A2[Q:1/4=89] e2- | %43
w: law of the God of|
[Q:1/4=88] e[Q:1/4=87] (A[Q:1/4=85] d4[Q:1/4=83] c[Q:1/4=82]B) |[Q:1/4=82] !fermata!c8 |] %45
w: * Ja\- * * *|cob.|
V:2
!f! E4 E2 | F3 F E2 ||[M:4/4] F2 A2 | G3 G G2 EE |[M:4/4] E2 =D2 E4 | z4 z4 | EF_GG F2 EE | %7
w: O sing|joy- ful- ly,|O sing|joy- ful- ly un- to|God our strength~:||make a cheer- ful noise, make a|
[M:4/4] E>F =GG GF E2 | E2 (E3 D B,2) ||[M:3/4] C4 z2 |!mf! F4 F2 |[M:3/4] E4 E2 | A3 A A2 || %13
w: cheer- ful noise un- to the God|of Ja\- * *|cob.|Take the|song, bring|hi- ther the|
[M:4/4] G2 G2 z2 G2 | AA G2 B3 A |[M:4/4] G4!ff! F4 | E4 z2!f! A2 | A3 A A2 A2 | FB A2 G2!mf! G2 | %19
w: tab- ret: the|mer- ry harp with the|lute. Blow|up, blow|up the trum- pet|in the new moon: ev'n|
 A3 G F2 E2 | DD E2 D2 C2 | B,2 E2 D4 |[M:4/4] C4 z4 | z2 AA B2 G2 | A2 F2 (E4 | F2) G2 z2 A2 | %26
w: in the time ap-|point- ed, ev'n in the|time ap point-|ed,|and up- on our|so- lemn feast\-|* day, our|
 G2 G2 F4 | G2 EE A2 F2 | E3 E (E3 D) | C4 z2!f! F2 | F2 E2 F2 F2 | G4 G2 E2 | A3 B G4 | %33
w: so- lemn feast-|day, and up- on our|so- lemn feast\- *|day. For|this was made a|sta- tute for|Is- ra- el:|
 z2!mf! AA G2 FF | E2 A4 G2 | F2 AA G2 FF | F2 EF G2 z2 | z2 AA G2 FF | E2 _G2 (FE E2- | %39
w: and a law of the|God of Ja-|cob, and a law of the|God of Ja- cob,|and a law of the|God of Ja\- * *|
 E2 =D2) E2 (_DE) | F2 E2 z2!f! _GG | F2 EE D2 F2 |"^rit." (E3 D) C2 E (_G | F6 ED) | %44
w: * * cob, of *|Ja- cob, and a|law of the God of|Ja\- * cob, of Ja\-||
 !fermata!E8 |] %45
w: cob.|
V:3
!f! c4 c2 | d3 d e2 ||[M:4/4] d2 e2 | e3 e e2 GG |[M:4/4][K:treble-8] c2 A2 B2 Bc | d2 (c2 B2 A2) | %6
w: O sing|joy- ful- ly,|O sing|joy- ful- ly un- to|God our strength: make a|cheer- ful * *|
 G2 Bc d2 c2 |[M:4/4][K:treble-8] B2 (GA) B2 (cd) | e (B c2) B4 ||[M:3/4] A4 z2 |!mf! A4 d2 | %11
w: noise, make a cheer- ful|noise un\- * to the *|God of * Ja-|cob.|Take the|
[M:3/4][K:treble-8] c4 c2 | c3 c e2 ||[M:4/4] e2 e2 z2 e2 | ee e2 f2 B2 | %15
w: song, bring|hi- ther the|tab- ret: the|mer- ry harp with the|
[M:4/4][K:treble-8] B4!ff! d4 | c4 z2!f! e2 | f3 d e2 c2 | dB (cd) e2!mf! e2 | f3 e d2 c2 | %20
w: lute. Blow|up, blow|up the trum- pet|in the new * moon: ev'n|in the time ap-|
 B4 A3 (G | FG) (A4 G2) |[M:4/4][K:treble-8] A2 cc d2 B2 | cc c2 e2 BB | c2 A2 c2 G2 | B4 A4 | z8 | %27
w: point- ed, ap\-|* * point\- *|ed, and up- on our|so- lemn feast- day, and up-|on our so- lemn|feast- day,||
 BB e2 c2 d2 | B2 (c2 B3 A) | A4 z2!f! A2 | d2 c2 d2 c2 | e4 e2 c2- | c (BA)A B2!mf! BB | %33
w: and up- on our so-|lemn feast\- * *|day. For|this was made a|sta- tute for|* Is\- * ra- el: and a|
 B2 AA B2 (AB) | (cB A2) B4 | ff e4 dB | c2 c2 (B2 cd | ed c2) B2 dd | c2 BB A2 c2 | %39
w: law of the God of *|Ja\- * * cob,|and a law of the|God of Ja\- * *|* * * cob, and a|law of the God of|
 (B2 A2) GA B2 | (cB) (A4 =G2) | A4 z2!f! dd |"^rit." c2 BB A2 c2 | A8 | !fermata!A8 |] %45
w: Ja\- * cob, the God|of * Ja\- *|cob, and a|law of the God of|Ja-|cob.|
V:4
!f! A,4 A,2 | D,3 D, C,2 ||[M:4/4] D,2 A,,2 | E,3 E, E,2 E,E, |[M:4/4] F,2 F,2 E,4 | %5
w: O sing|joy- ful- ly,|O sing|joy- ful- ly un- to|God our strength:|
 F,G,A,A, G,2 F,F, | E,3 E, D,2 A,2 |[M:4/4] E,3 F, G,2 A,2 | (E,2 C,D, E,4) ||[M:3/4] A,,4 z2 | %10
w: make a cheer- ful noise, make a|cheer- ful noise un-|to the God of|Ja\- * * *|cob.|
!mf! D,4 D,2 |[M:3/4] A,,4 A,2 | F,3 F, C,2 ||[M:4/4] E,2 E,2 z2 E,2 | A,B, C2 B,3 B, | %15
w: Take the|song, bring|hi- ther the|tab- ret: the|mer- ry harp with the|
[M:4/4] E,4!ff! (D,>E, F,G,) | A,4 z2!f! A,2 | D3 D C2 A,2 | B,G, A,2 E,4 | z8 | %20
w: lute. Blow * * *|up, blow|up the trum- pet|in the new moon:||
 z2!mf! E,2 F,3 E, | D,2 C,2 B,,4 |[M:4/4] A,,2 A,A, B,2 G,2 | A,A, F,2 E,2 E,D, | %24
w: ev'n in the|time ap- point-|ed, and up- on our|so- lemn feast- day, and up-|
 C,2 D,2 A,,A,, C,2 | B,,2 E,E, A,2 F,2 | G,3 A, B,4 | E,2 C,C, F,2 D,2 | E,2 C,2 E,4 | %29
w: on our so- lemn feast-|day, and up- on our|so- lemn feast-|day, and up- on our|so- lemn feast-|
 A,,4 z2!f! D,2 | D,2 A,,2 D,2 F,2 | E,4 E,2 A,2 | F,3 F, E,2!mf! E,E, | D,2 C,C, B,,2 D,2 | %34
w: day. For|this was made a|sta- tute for|Is- ra- el: and a|law of the God of|
 C,C,F,F, E,4 | B,,2 (C,D,) E,2 B,,2 | F,F,A,A, G,2 F,F, | E,2 A,2 E,E, B,,2 | %38
w: Ja- cob, and a law|of the * God of|Ja- cob, and a law of the|God of Ja- cob, of|
 (C,D, E,2) F,2 A,A, | G,2 F,F, E,2 _G,2 | F,F, A,2 E,4 | A,,2!f! C,C, D,4 | %42
w: Ja\- * * cob, and a|law of the God of|Ja- cob, of Ja-|cob, and a law|
"^rit." E,3 E, A,,3 C, | D,4 A,,4- | !fermata!A,,8 |] %45
w: of the God of|Ja- cob.||

